!!!OTL: My Wild Irish Rose
!!!COM: Olcott, Chauncey
!!!LAR: Field, Leonard
!! "My Wild Irish Rose" by Chauncey Olcott, arranged by Leonard Field
!! from "Close Harmony Classics for Barbershop Quartets" B. Feldman & Co.;
!! copyright 1919 & 1952 by M Witmark & Sons; pp. 10-11; in B- major
**kern	**kern	**kern	**kern
*Ivox	*Ivox	*Ivox	*Ivox
*M3/4	*M3/4	*M3/4	*M3/4
*B-:	*B-:	*B-:	*B-:
4r	4r	8D	4r
.	.	8E-	.
=1	=1	=1	=1
4D	4B-	4F	4f
4C#	4B-	4G	4en
4Cn	4F	4A	4e-
=2	=2	=2	=2
4BB-	4F	4B-	4d
4A;	4c;	4d;	4f#;
4D	4A	4c	4f#
=3	=3	=3	=3
4E-	4B-	4c	4g
4E-	4G	4B-	4e
4AA	4En	4G	4c#
=4	=4	=4	=4
2BB-	2F	2B-	2d
4r	4r	8D	4r
.	.	8E-	.
=5	=5	=5	=5
4BB-	4B-	4F	4d
4BB-	4B-	4G	4d
4GG	4d	4B-	4f
=6	=6	=6	=6
4G	4B-	4c	4en
4.G	4.B-	4.d	4.e
8G	8B-	8c	8e
=7	=7	=7	=7
4F	2.A	[2.c	[2.e-
4.C	.	.	.
8C	.	.	.
=8	=8	=8	=8
4FF	4r	4c]	4e-]
4r	4r	4r	4r
4r	4r	8D	4r
.	.	8E-	.
=9	=9	=9	=9
4D	4B-	4F	4f
4C#	4B-	4G	4en
4Cn	4F	4A	4e-
=10	=10	=10	=10
4BB-	4F	4B-	4d
4A	4c	4d	4f#
4D	4A	4c	4f#
=11	=11	=11	=11
4E-	4B-	4c	4g
4E-	4G	4B-	4e-
4AA	4En	4G	4c#
=12	=12	=12	=12
2BB-	2F	2B-	2d
4r	4r	8D	4r
.	.	8E-	.
=13	=13	=13	=13
4BB-	4B-	4F	4d
4BB-	4B-	4G	4d
4G	4d	4B-	4en
=14	=14	=14	=14
4F	4A	4c	4e-
4C	4G	4B-	4e-
4FF	4C	4A	4e-
=15	=15	=15	=15
2BB-	4F	2B-	4d
.	4G	.	4c
4BBn	4G-	4A	4e-
=16	=16	=16	=16
4BB-	4F	4B-	4d
4r	4r	4r	4r
4B-	4B-	4d	4f
=17	=17	=17	=17
4E-	4A	4c	4f
4D	4B-	4d	4f
4C	4A	4e-	4f
=18	=18	=18	=18
2A	2c	2e-	2f
8F	8A	8d	8f
8F#	8A	8c	8e-
=19	=19	=19	=19
4G	4d	4B-	4g
4F#	4d	4c	4a
4A	4c	4d	4f#
=20	=20	=20	=20
2G	2Bn	2d	2fn
8Fn	8B	8d	8g
8F	8B	8d	8g
=21	=21	=21	=21
4G	4B-	4d	4en
4G	4B-	4c	4e
4C	4G	4B-	4e
=22	=22	=22	=22
4C	4B-	4G	4en
4C	4F#	4A	4e-
4C	4G	4B-	4en
=23	=23	=23	=23
4F	4A	[2.c	4e-
4G	2B-	.	2en
4G-	.	.	.
=24	=24	=24	=24
4F	4A	4c]	4e-
4r	4r	4r	4r
4r	4r	8D	4r
.	.	8E-	.
=25	=25	=25	=25
4D	4B-	4F	4f
4C#	4B-	4G	4en
4Cn	4F	4A	4e-
=26	=26	=26	=26
4BB-	4F	4B-	4d
4A;	4c;	4d;	4f#;
4D	4A	4c	4f#
=27	=27	=27	=27
4E-	4B-	4c	4g
4E-	4G	4B-	4e-
4AA	4En	4G	4c#
=28	=28	=28	=28
2BB-	2F	2B-	2d
4r	4r	8D	4r
.	.	8E-	.
=29	=29	=29	=29
4BB-	4B-	4F	4d
4BB-	4B-	4G	4d
4GG	4G	4B-	4d
=30	=30	=30	=30
4G	4B-	4c	4en
4C	4G	4B-	4e-
4FF	4C	4A	4e-
=31	=31	=31	=31
2.BB-	2.F	2.B-	2.d
=32	=32	=32	=32
2C	2e-	2A	2f
4r	4r	4F	4r
=33	=33	=33	=33
2BB-	2.B-	2.d	2.f
8D	.	.	.
8E-	.	.	.
=34	=34	=34	=34
4F	4A	2d	4f
4G	4B-	.	4en
4F	4A	4c	4e-
=35	=35	=35	=35
2BB-	2FF	2B-	2d
4En	4G	4B-	4d-
=36	=36	=36	=36
2F	2A-	2B-	2dn
4D	4A-	4B-	4f
=37	=37	=37	=37
4E-	4G	4B-	4e-
2E-	2G	2B-	2e-
=38	=38	=38	=38
2En	2G	2A	2c#
4E	4A	4G	4c#
=39	=39	=39	=39
2BB-	2B-	2F	2d
4Bn	4d	4G#	[4f
=40	=40	=40	=40
4C	4e	4A	4f]
4r	4r	4r	4r
8G#	8Bn	8D	8f
8G#	8B	8D	8f
=41	=41	=41	=41
4A	4c	4E-	4f
4C	4A	4F	4e-
4C	4A	4G	4e-
=42	=42	=42	=42
2BB-	2B-	2F	2d
4G#	4Bn	4D	4f
=43	=43	=43	=43
4A	4c	4E-	4f
4C	4A	4F	4e-
4AA	4En	4G	4c#
=44	=44	=44	=44
2BB-	2B-	2F	2d
8D	8F	8B-	8f
8D	8F	8A	8f
=45	=45	=45	=45
2.C	2.B-	4G	4en
.	.	4F#	4e-
.	.	4G	4en
=46	=46	=46	=46
2G	2B-	2d	2en
4G	4B-	4c	4e
=47	=47	=47	=47
2.F	4A	4c	4e-
.	4A-	4Bn	4d
.	4An	4c	4e-
=48	=48	=48	=48
4C	4A	4e-	4f
4r	4r	4r	4r
4C	4A	4F	4e-
=49	=49	=49	=49
2BB-	2.B-	2.d	2.f
8D	.	.	.
8E-	.	.	.
=50	=50	=50	=50
4F	4A	2d	4f
4G	4B-	.	4en
4F	4A	4c	4e-
=51	=51	=51	=51
2BB-	2F	2B-	2d
4En	4G	4B-	4d-
=52	=52	=52	=52
2F	2A-	2B-	2dn
4D	4A-	4B-	4f
=53	=53	=53	=53
4E-	4G	4B-	4e-
2E-	2G	2B-	2e-
=54	=54	=54	=54
2En	2G	2A	2c#
4AA	4En	4G	4c#
=55	=55	=55	=55
2BB-	2B-	2F	2d
4Bn	4d	4G#	4f
=56	=56	=56	=56
4C	4e-	4A	4f
4r	4r	4r	4r
8G#	8Bn	8D	8f
8G#	8B	8D	8f
=57	=57	=57	=57
4A	4c	4E-	4f
4C	4A	4F	4e-
4C	4A	4G	4e-
=58	=58	=58	=58
2BB-	2B-	2F	2d
4G#	4Bn	4D	4f
=59	=59	=59	=59
4A	4c	4E-	4f
4C	4A	4F	4e-
4AA	4En	4G	4c#
=60	=60	=60	=60
4BB-	4B-	4F	4d
4GG;	4Bn;	4D;	4f;
4D	4B-	4F	4f
=61	=61	=61	=61
4C	4B-	4G	4en
4C	4G	4A	4e
4C	4G	4B-	4e
=62	=62	=62	=62
4G-	4c	4B-	4e-
4F	4A	4c	4e-
4E-	4c#	4B-	4g
=63	=63	=63	=63
2.D	4cn	4A	4f#
.	4Bn	4G#	4fn
.	4c	4A	4f#
=64	=64	=64	=64
4F#	4A	4c	4d
4Fn	4G	4Bn	4d
4GG	4D	4B	4f
=65	=65	=65	=65
4C	4B-	4G	4en
4F#	4c	4A	4e
4G	4c	4B-	4e
=66	=66	=66	=66
4.Fn	4.A	4.c	4.e-
8C	8G	8B-	8e-
4FF;	4C;	4A;	4e-;
=67	=67	=67	=67
[2.BB-	[2.F	[2.B-	[2.d
=68	=68	=68	=68
4BB-]	4F]	4B-]	4d]
2r	2r	2r	2r
==	==	==	==
*-	*-	*-	*-
